X:1
T: The Wickering Wench
N:
C:
S:
A:
O:
R:
M:6/8
K:G
I:speed 165
%W: A1
% voice 1 (1 lines, 31 notes)
K:G
M:6/8
L:1/16
D2 |G4 A2 B2 A2 G2 d6 B4 e2 d2 c2 B2 c2 E2 A2 F6 D6 |G4 A2 B2 A2 G2 e6 d4 g2 f2 e2 d2 e2 ^c4 d12 |
%W: A2
% voice 1 (1 lines, 33 notes)
G4 A2 B2 A2 G2 d6 B4 e2 d2 c2 B2 c2 E2 A2 F6 D6 |G4 A2 B2 A2 G2 e6 d4 g2 f2 e2 d2 e2 ^c4 d6d4 F G |
%W: B1
% voice 1 (1 lines, 34 notes)
A4 B2 c2 d2 c2 B4 e2 ^d4 f2 g2 f2 e2 f2 ^d4 e6e4 B c |d4 e2 d2 G2 A2 B6 A4 f2 g4 B2 A4 G2 G6G4 F G |
%W: B2
% voice 1 (1 lines, 32 notes)
A4 B2 c2 d2 c2 B4 e2 ^d4 f2 g2 f2 e2 f2 ^d4 e6e4 B c |d4 e2 d2 G2 A2 B6 A4 f2 g4 B2 A4 G2 G6G4 ||
